**kern	**kern	**dynam
*part1	*part1	*part1
*staff2	*staff1	*
*I"Piano	*	*
*clefF4	*clefG2	*
*k[f#c#g#d#]	*k[f#c#g#d#]	*
=1	=1	=1
*^	*	*
2A	2FF# 2C#	[2.e	.
4G#	4GG# 4C#	.	.
=	=	=	=
4F#X	4AA 4C#	4e]	.
4r;	4rEEyy	4r;	.
4F#	4AA 4E	4c#	pp
=	=	=	=
*	*	*^	*
2.E	2.BB	2.B	2.G#	.
=	=	=	=	=
2.G#	2.BB	2.e	2.B	.
=	=	=	=	=
[2.A	[2.BBB [2.BB	(2.e	(2.c#	<
=	=	=	=	=
2.A]	2.BBB] 2.BB]	2.f#)	2.d#)	[ >
=	=	=	=	=
2.G#;	2.EE 2.E	2.e;	2.e	]
*v	*v	*	*	*
*	*v	*v	*
==	==	==
*-	*-	*-
!!!system-decoration: {(s1,s2)}
